Origami/48x48/apps/blobby.svg

<svg width="48" height="48" version="1" xmlns="http://www.w3.org/2000/svg">
 <path d="m4.0117 24.5c-0.0041 0.167-0.0117 0.332-0.0117 0.5 0 11.08 8.92 20 20 20s20-8.92 20-20c0-0.16787-0.0076-0.33314-0.01172-0.5-0.264 10.846-9.076 19.5-19.988 19.5s-19.724-8.654-19.988-19.5z" opacity=".2"/>
 <circle cx="24" cy="24" r="20" style="fill:#cccccc"/>
 <path d="m21.464844 5.1640625c-0.605663 0.076004-1.199859 0.1839634-1.78711 0.3125-0.855816 5.9076845 0.145074 12.243376 3.337891 17.808594-1.64 2.613463-3.608297 5.062518-5.904297 6.859375-4.747359-6.147027-6.432858-13.813133-5.367187-20.947265-0.672171 0.5212238-1.320403 1.0704474-1.9199222 1.6718754-0.5916322 7.089044 1.3900302 14.284548 5.8125002 20.419921-2.49357 1.753184-5.254748 3.099852-8.1562502 3.951172a20 20 0 0 0 1.0507812 1.416016c6.44856-2.102155 12.235637-6.370583 15.960938-12.554688 3.116042 2e-6 6.231488 0.652732 9.019531 1.632813-3.515165 8.220216-10.453107 14.010252-18.548828 16.083984a20 20 0 0 0 2.548828 1.078125c7.653354-2.673118 14.159996-8.535738 17.476562-16.34375 2.811611 1.326568 5.337851 3.065364 7.494141 5.070313a20 20 0 0 0 0.677734 -1.916016c-4.997259-4.378377-11.453323-7.082027-18.667968-7.238281-1.640002-2.776853-2.623192-5.717961-3.115235-8.658203 1.086495-0.12251 2.164825-0.182995 3.232422-0.185547 7.178551-0.01716 13.843931 2.625502 18.9375 7.140625-0.213948-0.999371-0.514702-1.963345-0.871094-2.900391-5.97149-4.548001-13.561978-6.789274-21.46289-5.6875-0.152956-2.2857526-0.146796-4.7087981 0.251953-7.0136715z" style="opacity:.2"/>
 <path d="m21.464844 4.1640625c-0.605663 0.0760041-1.199859 0.1839634-1.78711 0.3125-0.855816 5.9076845 0.145074 12.243376 3.337891 17.808594-1.64 2.613463-3.608297 5.062518-5.904297 6.859375-4.747359-6.147027-6.432858-13.813133-5.367187-20.947265-0.672171 0.5212238-1.320403 1.0704474-1.9199222 1.671875-0.5916322 7.0890444 1.3900302 14.284547 5.8125002 20.419921-2.652646 1.865027-5.605505 3.278276-8.7109378 4.115235 0.3050118 0.500925 0.6299678 0.986565 0.9765626 1.457031 6.7013582-2.02428 12.74338-6.374527 16.589844-12.759766 3.116042 2e-6 6.231488 0.652732 9.019531 1.632813-3.700341 8.653252-11.191755 14.622578-19.835938 16.388672 0.764321 0.460474 1.553684 0.883591 2.38086 1.240234 8.278411-2.409858 15.406809-8.512229 18.93164-16.810547 2.932569 1.383638 5.566582 3.206679 7.78125 5.322266 0.235589-0.646341 0.438343-1.306448 0.607422-1.982422-5.026167-4.489515-11.566925-7.265339-18.884765-7.423828-1.640001-2.776853-2.623192-5.717961-3.115235-8.658203 1.086495-0.12251 2.164825-0.182995 3.232422-0.185547 7.178551-0.017161 13.843931 2.625502 18.9375 7.140625-0.213948-0.999371-0.514702-1.963345-0.871094-2.900391-5.97149-4.548001-13.561978-6.789274-21.46289-5.6875-0.152956-2.285753-0.146796-4.7087981 0.251953-7.0136715z" style="fill:#4f4f4f"/>
 <path d="m24 4c-11.08 0-20 8.92-20 20 0 0.168 8e-3 0.333 0.0117 0.5 0.2647-10.846 9.0763-19.5 19.988-19.5s19.724 8.6539 19.988 19.5c4e-3 -0.16686 0.0117-0.33213 0.0117-0.5 0-11.08-8.92-20-20-20z" fill="#fff" opacity=".2"/>
</svg>

<svg xmlns="http://www.w3.org/2000/svg" width="48" height="48" version="1">
 <path opacity=".2" d="m4.0117 24.5c-0.0041 0.167-0.0117 0.332-0.0117 0.5 0 11.08 8.92 20 20 20s20-8.92 20-20c0-0.16787-0.0076-0.33314-0.01172-0.5-0.264 10.846-9.076 19.5-19.988 19.5s-19.724-8.654-19.988-19.5z"/>
 <circle style="fill:#cccccc" cx="24" cy="24" r="20"/>
 <path style="opacity:0.2" d="M 21.464844 5.1640625 C 20.859181 5.2400665 20.264985 5.3480259 19.677734 5.4765625 C 18.821918 11.384247 19.822808 17.719939 23.015625 23.285156 C 21.375625 25.898619 19.407328 28.347674 17.111328 30.144531 C 12.363969 23.997504 10.67847 16.331398 11.744141 9.1972656 C 11.07197 9.7184894 10.423738 10.267713 9.8242188 10.869141 C 9.2325866 17.958185 11.214249 25.153689 15.636719 31.289062 C 13.143149 33.042246 10.381971 34.388914 7.4804688 35.240234 A 20 20 0 0 0 8.53125 36.65625 C 14.97981 34.554095 20.766887 30.285667 24.492188 24.101562 C 27.60823 24.101564 30.723676 24.754294 33.511719 25.734375 C 29.996554 33.954591 23.058612 39.744627 14.962891 41.818359 A 20 20 0 0 0 17.511719 42.896484 C 25.165073 40.223366 31.671715 34.360746 34.988281 26.552734 C 37.799892 27.879302 40.326132 29.618098 42.482422 31.623047 A 20 20 0 0 0 43.160156 29.707031 C 38.162897 25.328654 31.706833 22.625004 24.492188 22.46875 C 22.852186 19.691897 21.868996 16.750789 21.376953 13.810547 C 22.463448 13.688037 23.541778 13.627552 24.609375 13.625 C 31.787926 13.60784 38.453306 16.250502 43.546875 20.765625 C 43.332927 19.766254 43.032173 18.80228 42.675781 17.865234 C 36.704291 13.317233 29.113803 11.07596 21.212891 12.177734 C 21.059935 9.8919814 21.066095 7.4689359 21.464844 5.1640625 z"/>
 <path style="fill:#4f4f4f" d="M 21.464844 4.1640625 C 20.859181 4.2400666 20.264985 4.3480259 19.677734 4.4765625 C 18.821918 10.384247 19.822808 16.719939 23.015625 22.285156 C 21.375625 24.898619 19.407328 27.347674 17.111328 29.144531 C 12.363969 22.997504 10.67847 15.331398 11.744141 8.1972656 C 11.07197 8.7184894 10.423738 9.267713 9.8242188 9.8691406 C 9.2325866 16.958185 11.214249 24.153688 15.636719 30.289062 C 12.984073 32.154089 10.031214 33.567338 6.9257812 34.404297 C 7.230793 34.905222 7.555749 35.390862 7.9023438 35.861328 C 14.603702 33.837048 20.645724 29.486801 24.492188 23.101562 C 27.60823 23.101564 30.723676 23.754294 33.511719 24.734375 C 29.811378 33.387627 22.319964 39.356953 13.675781 41.123047 C 14.440102 41.583521 15.229465 42.006638 16.056641 42.363281 C 24.335052 39.953423 31.46345 33.851052 34.988281 25.552734 C 37.92085 26.936372 40.554863 28.759413 42.769531 30.875 C 43.00512 30.228659 43.207874 29.568552 43.376953 28.892578 C 38.350786 24.403063 31.810028 21.627239 24.492188 21.46875 C 22.852187 18.691897 21.868996 15.750789 21.376953 12.810547 C 22.463448 12.688037 23.541778 12.627552 24.609375 12.625 C 31.787926 12.607839 38.453306 15.250502 43.546875 19.765625 C 43.332927 18.766254 43.032173 17.80228 42.675781 16.865234 C 36.704291 12.317233 29.113803 10.07596 21.212891 11.177734 C 21.059935 8.891981 21.066095 6.4689359 21.464844 4.1640625 z"/>
 <path fill="#fff" opacity=".2" d="m24 4c-11.08 0-20 8.92-20 20 0 0.168 0.008 0.333 0.0117 0.5 0.2647-10.846 9.0763-19.5 19.988-19.5s19.724 8.6539 19.988 19.5c0.004-0.16686 0.0117-0.33213 0.0117-0.5 0-11.08-8.92-20-20-20z"/>
</svg>
